Dominus_Dark_Funeral/scalable/apps/com.github.themix_project.Oomox.svg

<?xml version="1.0" encoding="UTF-8" standalone="no"?><svg xmlns:dc="http://purl.org/dc/elements/1.1/" xmlns:cc="http://creativecommons.org/ns#" xmlns:rdf="http://www.w3.org/1999/02/22-rdf-syntax-ns#" xmlns="http://www.w3.org/2000/svg" xmlns:xlink="http://www.w3.org/1999/xlink" width="48" height="48" viewBox="0 0 12.7 12.7"><metadata><rdf:RDF><cc:Work><dc:format>image/svg+xml</dc:format><dc:type rdf:resource="http://purl.org/dc/dcmitype/StillImage"/><dc:title/></cc:Work></rdf:RDF></metadata><defs><linearGradient id="h"><stop offset="0" stop-color="#d74845"/><stop offset="1" stop-color="#d74845" stop-opacity="0"/></linearGradient><linearGradient id="g"><stop offset="0" stop-color="#e98928"/><stop offset="1" stop-color="#e98928" stop-opacity="0"/></linearGradient><linearGradient id="f"><stop offset="0" stop-color="#e0ad2f"/><stop offset="1" stop-color="#e0ad2f" stop-opacity="0"/></linearGradient><linearGradient id="e"><stop offset="0" stop-color="#4fae53" stop-opacity="0"/><stop offset="1" stop-color="#4fae53"/></linearGradient><linearGradient id="d"><stop offset="0" stop-color="#479ae1" stop-opacity="0"/><stop offset="1" stop-color="#479ae1"/></linearGradient><linearGradient id="c"><stop offset="0" stop-color="#a458b8"/><stop offset="1" stop-color="#a458b8" stop-opacity="0"/></linearGradient><linearGradient id="a"><stop offset="0"/><stop offset="1" stop-opacity="0"/></linearGradient><linearGradient id="b"><stop offset="0" stop-color="#515151"/><stop offset=".2" stop-color="#2b2b2b"/><stop offset=".53" stop-color="#1b1b1b"/><stop offset="1"/></linearGradient><linearGradient xlink:href="#c" id="j" x1="4.8" y1=".31" x2="6.36" y2="5.87" gradientUnits="userSpaceOnUse"/><linearGradient xlink:href="#d" id="k" x1="6.36" y1="5.87" x2="11.23" y2="1.81" gradientUnits="userSpaceOnUse"/><linearGradient xlink:href="#e" id="l" x1="6.36" y1="5.87" x2="11.65" y2="6.86" gradientUnits="userSpaceOnUse"/><linearGradient xlink:href="#f" id="m" x1="6.35" y1="12.61" x2="6.36" y2="5.87" gradientUnits="userSpaceOnUse"/><linearGradient xlink:href="#g" id="n" x1="2.2" y1="9.12" x2="6.36" y2="5.87" gradientUnits="userSpaceOnUse"/><linearGradient xlink:href="#h" id="i" x1="1" y1="4.32" x2="6.36" y2="4.32" gradientUnits="userSpaceOnUse"/></defs><path d="M6.35.1C4.81.1 3.57.39 2.66.97A3.67 3.67 0 0 0 1 4.22c0 1.91 1.54 4.47 2.01 5.2.54.85 1.13 1.61 1.65 2.16.68.7 1.21 1.03 1.69 1.03s1.01-.33 1.69-1.03a15.2 15.2 0 0 0 1.65-2.15c.47-.74 2-3.3 2-5.21 0-1.42-.57-2.54-1.65-3.25A6.75 6.75 0 0 0 6.35.09z" fill="#fff"/><path d="M2 1.53a3.67 3.67 0 0 0-.16.17 3.67 3.67 0 0 0-.22.3 3.67 3.67 0 0 0-.19.3 3.67 3.67 0 0 0-.16.34 3.67 3.67 0 0 0-.12.34 3.67 3.67 0 0 0-.09.36 3.67 3.67 0 0 0-.05.36 3.67 3.67 0 0 0-.01.37 3.67 3.67 0 0 0 0 .15c0 .48.1 1 .25 1.52.13.46.32.92.52 1.36l4.59-1.23L3.27 2.8z" fill="url(#i)"/><path d="M7.88.2A6.75 6.75 0 0 0 7.5.13a6.75 6.75 0 0 0-.67-.05 6.75 6.75 0 0 0-.47.01V.1c-.77 0-1.46.07-2.08.22a5.9 5.9 0 0 0-1.61.65 3.67 3.67 0 0 0-.3.22 3.67 3.67 0 0 0-.27.24 3.67 3.67 0 0 0-.1.1l4.37 4.34z" fill="url(#j)"/><path d="M11.65 4.46c0-.08.04-.17.04-.24a3.74 3.74 0 0 0-.94-2.64c-.2-.23-.44-.43-.71-.61a6.75 6.75 0 0 0-.6-.3A6.75 6.75 0 0 0 8.8.42a6.75 6.75 0 0 0-.65-.18A6.75 6.75 0 0 0 7.88.2L6.36 5.87z" fill="url(#k)"/><path d="M9.78 9.27c.25-.4.68-1.1 1.09-2 .22-.5.42-1.01.57-1.53.13-.44.19-.87.21-1.28l-5.3 1.41z" fill="url(#l)"/><path d="M4.8 11.7c.28.27.54.51.78.66.28.17.53.25.77.25s.5-.08.77-.25c.28-.17.58-.43.92-.78a15.2 15.2 0 0 0 1.65-2.15l.09-.16-3.42-3.4z" fill="url(#m)"/><path d="M1.77 7.1l.06.16a18.1 18.1 0 0 0 2.83 4.32l.14.11 1.56-5.82z" fill="url(#n)"/><path d="M6.35.1C4.81.1 3.57.39 2.66.97A3.67 3.67 0 0 0 1 4.22c0 1.91 1.54 4.47 2.01 5.2.54.85 1.13 1.61 1.65 2.16.68.7 1.21 1.03 1.69 1.03s1.01-.33 1.69-1.03a15.2 15.2 0 0 0 1.65-2.15c.47-.74 2-3.3 2-5.21 0-1.42-.57-2.54-1.65-3.25A6.75 6.75 0 0 0 6.35.09zm0 .03C6.91.15 7.44.2 7.9.31a5.82 5.82 0 0 1 1.6.66 3.65 3.65 0 0 1 1.24 1.36c.14.27.25.57.32.88a4.61 4.61 0 0 1-.14 2.53c-.15.52-.36 1.04-.58 1.52-.44.97-.95 1.8-1.18 2.17a15.2 15.2 0 0 1-1.65 2.15 4.9 4.9 0 0 1-.92.78.96.96 0 0 1-.24.1.96.96 0 0 1-.24-.1 4.76 4.76 0 0 1-.92-.78 14.41 14.41 0 0 1-1.65-2.15 19.2 19.2 0 0 1-1.18-2.17c-.22-.48-.43-1-.58-1.52a4.6 4.6 0 0 1-.14-2.52 3.73 3.73 0 0 1 .84-1.64 3.65 3.65 0 0 1 1.45-1A6.83 6.83 0 0 1 6.35.13z" opacity=".2"/><path d="M6.3 2.8a2.98 2.98 0 1 0 2.98 2.98V3.55a.74.74 0 0 0-.74-.75zm2 .5a.5.5 0 0 1 .5.5.5.5 0 0 1-.5.5.5.5 0 0 1-.5-.5.5.5 0 0 1 .5-.5z" fill="#666"/></svg>

<?xml version="1.0" encoding="UTF-8" standalone="no"?>
<svg
   xmlns:dc="http://purl.org/dc/elements/1.1/"
   xmlns:cc="http://creativecommons.org/ns#"
   xmlns:rdf="http://www.w3.org/1999/02/22-rdf-syntax-ns#"
   xmlns:svg="http://www.w3.org/2000/svg"
   xmlns="http://www.w3.org/2000/svg"
   xmlns:xlink="http://www.w3.org/1999/xlink"
   xmlns:sodipodi="http://sodipodi.sourceforge.net/DTD/sodipodi-0.dtd"
   xmlns:inkscape="http://www.inkscape.org/namespaces/inkscape"
   width="48"
   height="48"
   viewBox="0 0 12.7 12.7"
   version="1.1"
   id="svg74"
   sodipodi:docname="com.github.themix_project.Oomox.svg"
   inkscape:version="0.92.4 (5da689c313, 2019-01-14)">
  <sodipodi:namedview
     pagecolor="#ffffff"
     bordercolor="#666666"
     borderopacity="1"
     objecttolerance="10"
     gridtolerance="10"
     guidetolerance="10"
     inkscape:pageopacity="0"
     inkscape:pageshadow="2"
     inkscape:window-width="1112"
     inkscape:window-height="480"
     id="namedview76"
     showgrid="false"
     inkscape:zoom="4.9166667"
     inkscape:cx="2.1355932"
     inkscape:cy="24"
     inkscape:window-x="0"
     inkscape:window-y="25"
     inkscape:window-maximized="0"
     inkscape:current-layer="svg74" />
  <metadata
     id="metadata2">
    <rdf:RDF>
      <cc:Work>
        <dc:format>image/svg+xml</dc:format>
        <dc:type
           rdf:resource="http://purl.org/dc/dcmitype/StillImage" />
        <dc:title></dc:title>
      </cc:Work>
    </rdf:RDF>
  </metadata>
  <defs
     id="defs54">
    <linearGradient
       id="h">
      <stop
         offset="0"
         stop-color="#d74845"
         id="stop4" />
      <stop
         offset="1"
         stop-color="#d74845"
         stop-opacity="0"
         id="stop6" />
    </linearGradient>
    <linearGradient
       id="g">
      <stop
         offset="0"
         stop-color="#e98928"
         id="stop9" />
      <stop
         offset="1"
         stop-color="#e98928"
         stop-opacity="0"
         id="stop11" />
    </linearGradient>
    <linearGradient
       id="f">
      <stop
         offset="0"
         stop-color="#e0ad2f"
         id="stop14" />
      <stop
         offset="1"
         stop-color="#e0ad2f"
         stop-opacity="0"
         id="stop16" />
    </linearGradient>
    <linearGradient
       id="e">
      <stop
         offset="0"
         stop-color="#4fae53"
         stop-opacity="0"
         id="stop19" />
      <stop
         offset="1"
         stop-color="#4fae53"
         id="stop21" />
    </linearGradient>
    <linearGradient
       id="d">
      <stop
         offset="0"
         stop-color="#479ae1"
         stop-opacity="0"
         id="stop24" />
      <stop
         offset="1"
         stop-color="#479ae1"
         id="stop26" />
    </linearGradient>
    <linearGradient
       id="c">
      <stop
         offset="0"
         stop-color="#a458b8"
         id="stop29" />
      <stop
         offset="1"
         stop-color="#a458b8"
         stop-opacity="0"
         id="stop31" />
    </linearGradient>
    <linearGradient
       id="a">
      <stop
         offset="0"
         id="stop34" />
      <stop
         offset="1"
         stop-opacity="0"
         id="stop36" />
    </linearGradient>
    <linearGradient
       id="b">
      <stop
         offset="0"
         stop-color="#515151"
         id="stop39" />
      <stop
         offset=".2"
         stop-color="#2b2b2b"
         id="stop41" />
      <stop
         offset=".53"
         stop-color="#1b1b1b"
         id="stop43" />
      <stop
         offset="1"
         id="stop45" />
    </linearGradient>
    <linearGradient
       xlink:href="#c"
       id="j"
       x1="4.8"
       y1=".31"
       x2="6.36"
       y2="5.87"
       gradientUnits="userSpaceOnUse" />
    <linearGradient
       xlink:href="#d"
       id="k"
       x1="6.36"
       y1="5.87"
       x2="11.23"
       y2="1.81"
       gradientUnits="userSpaceOnUse" />
    <linearGradient
       xlink:href="#e"
       id="l"
       x1="6.36"
       y1="5.87"
       x2="11.65"
       y2="6.86"
       gradientUnits="userSpaceOnUse" />
    <linearGradient
       xlink:href="#f"
       id="m"
       x1="6.35"
       y1="12.61"
       x2="6.36"
       y2="5.87"
       gradientUnits="userSpaceOnUse" />
    <linearGradient
       xlink:href="#g"
       id="n"
       x1="2.2"
       y1="9.12"
       x2="6.36"
       y2="5.87"
       gradientUnits="userSpaceOnUse" />
    <linearGradient
       xlink:href="#h"
       id="i"
       x1="1"
       y1="4.32"
       x2="6.36"
       y2="4.32"
       gradientUnits="userSpaceOnUse" />
  </defs>
  <path
     d="M 6.35,0.1 C 4.81,0.1 3.57,0.39 2.66,0.97 A 3.67,3.67 0 0 0 1,4.22 c 0,1.91 1.54,4.47 2.01,5.2 0.54,0.85 1.13,1.61 1.65,2.16 0.68,0.7 1.21,1.03 1.69,1.03 0.48,0 1.01,-0.33 1.69,-1.03 A 15.2,15.2 0 0 0 9.69,9.43 c 0.47,-0.74 2,-3.3 2,-5.21 0,-1.42 -0.57,-2.54 -1.65,-3.25 A 6.75,6.75 0 0 0 6.35,0.09 Z"
     id="path56"
     inkscape:connector-curvature="0"
     style="fill:#ffffff" />
  <path
     d="M 2,1.53 A 3.67,3.67 0 0 0 1.84,1.7 3.67,3.67 0 0 0 1.62,2 3.67,3.67 0 0 0 1.43,2.3 3.67,3.67 0 0 0 1.27,2.64 3.67,3.67 0 0 0 1.15,2.98 3.67,3.67 0 0 0 1.06,3.34 3.67,3.67 0 0 0 1.01,3.7 3.67,3.67 0 0 0 1,4.07 3.67,3.67 0 0 0 1,4.22 C 1,4.7 1.1,5.22 1.25,5.74 1.38,6.2 1.57,6.66 1.77,7.1 L 6.36,5.87 3.27,2.8 Z"
     id="path58"
     style="fill:url(#i)"
     inkscape:connector-curvature="0" />
  <path
     d="M 7.88,0.2 A 6.75,6.75 0 0 0 7.5,0.13 6.75,6.75 0 0 0 6.83,0.08 6.75,6.75 0 0 0 6.36,0.09 V 0.1 C 5.59,0.1 4.9,0.17 4.28,0.32 A 5.9,5.9 0 0 0 2.67,0.97 3.67,3.67 0 0 0 2.37,1.19 3.67,3.67 0 0 0 2.1,1.43 3.67,3.67 0 0 0 2,1.53 l 4.37,4.34 z"
     id="path60"
     style="fill:url(#j)"
     inkscape:connector-curvature="0" />
  <path
     d="m 11.65,4.46 c 0,-0.08 0.04,-0.17 0.04,-0.24 A 3.74,3.74 0 0 0 10.75,1.58 C 10.55,1.35 10.31,1.15 10.04,0.97 A 6.75,6.75 0 0 0 9.44,0.67 6.75,6.75 0 0 0 8.8,0.42 6.75,6.75 0 0 0 8.15,0.24 6.75,6.75 0 0 0 7.88,0.2 L 6.36,5.87 Z"
     id="path62"
     style="fill:url(#k)"
     inkscape:connector-curvature="0" />
  <path
     d="m 9.78,9.27 c 0.25,-0.4 0.68,-1.1 1.09,-2 0.22,-0.5 0.42,-1.01 0.57,-1.53 0.13,-0.44 0.19,-0.87 0.21,-1.28 l -5.3,1.41 z"
     id="path64"
     style="fill:url(#l)"
     inkscape:connector-curvature="0" />
  <path
     d="m 4.8,11.7 c 0.28,0.27 0.54,0.51 0.78,0.66 0.28,0.17 0.53,0.25 0.77,0.25 0.24,0 0.5,-0.08 0.77,-0.25 C 7.4,12.19 7.7,11.93 8.04,11.58 A 15.2,15.2 0 0 0 9.69,9.43 L 9.78,9.27 6.36,5.87 Z"
     id="path66"
     style="fill:url(#m)"
     inkscape:connector-curvature="0" />
  <path
     d="m 1.77,7.1 0.06,0.16 a 18.1,18.1 0 0 0 2.83,4.32 L 4.8,11.69 6.36,5.87 Z"
     id="path68"
     style="fill:url(#n)"
     inkscape:connector-curvature="0" />
  <path
     d="M 6.35,0.1 C 4.81,0.1 3.57,0.39 2.66,0.97 A 3.67,3.67 0 0 0 1,4.22 c 0,1.91 1.54,4.47 2.01,5.2 0.54,0.85 1.13,1.61 1.65,2.16 0.68,0.7 1.21,1.03 1.69,1.03 0.48,0 1.01,-0.33 1.69,-1.03 A 15.2,15.2 0 0 0 9.69,9.43 c 0.47,-0.74 2,-3.3 2,-5.21 0,-1.42 -0.57,-2.54 -1.65,-3.25 A 6.75,6.75 0 0 0 6.35,0.09 Z m 0,0.03 C 6.91,0.15 7.44,0.2 7.9,0.31 a 5.82,5.82 0 0 1 1.6,0.66 3.65,3.65 0 0 1 1.24,1.36 c 0.14,0.27 0.25,0.57 0.32,0.88 A 4.61,4.61 0 0 1 10.92,5.74 C 10.77,6.26 10.56,6.78 10.34,7.26 9.9,8.23 9.39,9.06 9.16,9.43 A 15.2,15.2 0 0 1 7.51,11.58 4.9,4.9 0 0 1 6.59,12.36 0.96,0.96 0 0 1 6.35,12.46 0.96,0.96 0 0 1 6.11,12.36 4.76,4.76 0 0 1 5.19,11.58 14.41,14.41 0 0 1 3.54,9.43 19.2,19.2 0 0 1 2.36,7.26 C 2.14,6.78 1.93,6.26 1.78,5.74 A 4.6,4.6 0 0 1 1.64,3.22 3.73,3.73 0 0 1 2.48,1.58 3.65,3.65 0 0 1 3.93,0.58 6.83,6.83 0 0 1 6.35,0.13 Z"
     id="path70"
     inkscape:connector-curvature="0"
     style="opacity:0.2" />
  <path
     d="M 6.3,2.8 A 2.98,2.98 0 1 0 9.28,5.78 V 3.55 A 0.74,0.74 0 0 0 8.54,2.8 Z m 2,0.5 A 0.5,0.5 0 0 1 8.8,3.8 0.5,0.5 0 0 1 8.3,4.3 0.5,0.5 0 0 1 7.8,3.8 0.5,0.5 0 0 1 8.3,3.3 Z"
     id="path72"
     inkscape:connector-curvature="0"
     style="fill:#666666" />
</svg>
